optimized/24/outline/sort.svg

<svg viewBox="0 0 24 24" xmlns="http://www.w3.org/2000/svg" fill="currentColor" data-slot="icon">
  <g clip-path="url(#clip0_2117_12152)">
    <path d="M6.56724 3.26009C6.56724 2.8403 6.22644 2.5 5.80604 2.5C5.38563 2.5 5.04483 2.8403 5.04483 3.26009V19.5948L3.31381 17.7703C3.02468 17.4655 2.54288 17.4525 2.23769 17.7412C1.9325 18.0299 1.91948 18.511 2.20861 18.8158L4.37756 21.1019C5.16632 21.9332 6.56724 21.3758 6.56724 20.2306V3.26009Z"/>
    <path d="M9.56695 6.55383C9.14654 6.55383 8.80574 6.89413 8.80574 7.31392C8.80574 7.73371 9.14654 8.07401 9.56695 8.07401H21.2388C21.6592 8.07401 22 7.73371 22 7.31392C22 6.89413 21.6592 6.55383 21.2388 6.55383H9.56695Z"/>
    <path d="M9.56695 11.6211C9.14654 11.6211 8.80574 11.9614 8.80574 12.3812C8.80574 12.801 9.14654 13.1413 9.56695 13.1413H17.9402C18.3606 13.1413 18.7014 12.801 18.7014 12.3812C18.7014 11.9614 18.3606 11.6211 17.9402 11.6211H9.56695Z"/>
    <path d="M8.80574 17.4485C8.80574 17.0287 9.14654 16.6884 9.56695 16.6884H15.9103C16.3307 16.6884 16.6715 17.0287 16.6715 17.4485C16.6715 17.8683 16.3307 18.2086 15.9103 18.2086H9.56695C9.14654 18.2086 8.80574 17.8683 8.80574 17.4485Z"/>
  </g>
  <defs>
    <clipPath id="clip0_2117_12152">
      <rect width="24" height="24"/>
    </clipPath>
  </defs>
</svg>

<svg xmlns="http://www.w3.org/2000/svg" viewBox="0 0 24 24" fill="currentColor" data-slot="icon">
  <g clip-path="url(#a)">
    <path d="M6.567 3.26a.76.76 0 0 0-1.522 0v16.335L3.314 17.77a.762.762 0 0 0-1.076-.029.76.76 0 0 0-.03 1.075l2.17 2.286c.788.831 2.19.274 2.19-.871V3.26Z"/>
    <path d="M9.567 6.554a.76.76 0 1 0 0 1.52h11.672a.76.76 0 1 0 0-1.52H9.567Z"/>
    <path d="M9.567 11.621a.76.76 0 1 0 0 1.52h8.373a.76.76 0 1 0 0-1.52H9.567Z"/>
    <path d="M8.806 17.448c0-.42.34-.76.761-.76h6.343a.76.76 0 1 1 0 1.52H9.567a.76.76 0 0 1-.761-.76Z"/>
  </g>
  <defs>
    <clipPath id="a">
      <rect width="24" height="24"/>
    </clipPath>
  </defs>
</svg>
